!!!OTL: Der verschm&auml;hte J&auml;ger (232a), S.500
!!!id: T0418
**kern
*clefG2
*k[f#]
*G:
{8d
=1
4b
8a
8g
8f#
8g
=2
8a
4d}
4r
=3
{8d
=4
4cc
8b
4a
8cc
=5
4b}
4.r
=6
{16g
16a
=7
8b
8b
8b
4b
8b
=8
4b
8dd
4dd}
=9
{8dd
=10
8.cc
16cc
8cc
4a
8cc
=11
4b}
4.r
=12
{16g
16a
=13
8b
8b
8b
4b
8b
=14
4b
8dd
4dd}
=15
{8dd
=16
8.cc
16cc
8cc
4a
8cc
=17
4b}
4.r
==
*-
!!!minrhy: 16
!!!meters: 6/8 ]  ZZ[6
!!!cut: Der verschm&auml;hte J&auml;ger (232a), S.500
!!!reg: Luxemburg
!!!trd: Singendes Volk, Esch-Alzette, 1937 posth.
!!!rhy1: X_  X__X_X_X_X_  X_X__0_   (x2)
!!!rhy2: X_  X__X_X__X_  X__0_.
!!!key: T0418  16  G 6/8 ]  ZZ[6
!!!mod: SECHSTONSKALA DUR ?]  AMBITUS[8
!!!kad: -535353
!!!akz: 312_423_3335_423_3335_423_
!!!fot: 'a__as'b__as'b__as'
!!!for: 'a__b__c__d__c__d__
!!!fok: 'M__/__/__\__/__\__
!! PHRAS[AUFTAKTIG]
!!!fkt: Jagdlied, Liebeslied?
!!!bem1: Esch-Alzette, fff Michel Rauchs, 23.1.1914;
!!!bem2: (232b)- StraPen, fff Witry, 13.12.1932
!! THILL; Mathias
!! PR[36] 2K[6] 2G[12] 3K[6] 3G[3] 4A[3] 4Ü[0] 5A[0] 6K[0] 6G[0]
!! 7K[3] 7G[0] 8A[0] MEHR[0] SI[33] ABS[33] SR[18] SP[15]
!! ST[8] 2k[3] 2g[12] 3k[9] 3g[3] 4d[0] 4ü[0] 5d[0] 6k[3] 6g[0]
!! 7k[0] 7g[0] 8d[0] mehr[0] si[30] dm[+3] sr[15] sp[15]
!! 1F[69] 2F[26] 3F[0] 4F[0] LF[0] 2P[6] 3P[0] 4P[0] TRI[0] DF[3] AB[35]
!! TF[0] U3K[0] U3[0] U4[0] U4Ü[0] U5[0] U6K[0] U6[0] U7K[0] U7[0]
!! N1[0] N2K[0] N2[3] N3K[0] N3[6] N4[0] N4Ü[0] N5[24] N6K[0] N6[24]
!!!n7k: 0] N7[12] O1[21] O2K[0] O2[6] O3K[0] O3[6] HÖ[0
!!!RNB: symbol: &auml;      = a umlaut  (UTF-8: Å„)
